docs/icons/electronjs.svg

<svg width="128" height="128" viewBox="0 0 128 128" fill="none" xmlns="http://www.w3.org/2000/svg">
<path d="M54.1526 44.8616C54.9166 45.0009 55.649 44.4945 55.7884 43.7305C55.9278 42.9665 55.4214 42.2341 54.6573 42.0947L54.1526 44.8616ZM36.3557 48.043L37.574 48.7454L36.3557 48.043ZM36.6088 61.6061C36.9947 62.2801 37.8538 62.5138 38.5279 62.1279C39.2019 61.742 39.4355 60.8829 39.0497 60.2088L36.6088 61.6061ZM43.448 66.1451C42.9257 65.5703 42.0364 65.5277 41.4615 66.0499C40.8867 66.5722 40.8441 67.4616 41.3664 68.0364L43.448 66.1451ZM55.9913 77.8292L55.2873 79.0466L55.9913 77.8292ZM89.7192 83.9336C90.3606 83.4956 90.5254 82.6206 90.0874 81.9793C89.6494 81.3379 88.7744 81.173 88.1331 81.6111L89.7192 83.9336ZM54.6573 42.0947C50.3056 41.3009 46.2537 41.263 42.8857 42.0763C39.5115 42.8911 36.7219 44.5919 35.1374 47.3408L37.574 48.7454C38.6635 46.8554 40.6756 45.5034 43.5459 44.8102C46.4225 44.1155 50.0583 44.1147 54.1526 44.8616L54.6573 42.0947ZM35.1374 47.3408C32.7836 51.4241 33.7485 56.6093 36.6088 61.6061L39.0497 60.2088C36.3889 55.5607 35.96 51.5454 37.574 48.7454L35.1374 47.3408ZM41.3664 68.0364C44.9675 72 49.7154 75.8246 55.2873 79.0466L56.6952 76.6119C51.35 73.5209 46.8357 69.8738 43.448 66.1451L41.3664 68.0364ZM55.2873 79.0466C61.925 82.8848 68.7238 85.2848 74.7305 86.1569C80.6867 87.0216 86.0893 86.4126 89.7192 83.9336L88.1331 81.6111C85.348 83.513 80.7892 84.1945 75.1347 83.3736C69.5307 82.5599 63.0695 80.2978 56.6952 76.6119L55.2873 79.0466ZM96.3117 80.3341C96.3117 77.6201 94.114 75.4162 91.3992 75.4162V78.2287C92.557 78.2287 93.4992 79.1692 93.4992 80.3341H96.3117ZM91.3992 75.4162C88.684 75.4162 86.4868 77.6201 86.4868 80.3341H89.2993C89.2993 79.1692 90.2415 78.2287 91.3992 78.2287V75.4162ZM86.4868 80.3341C86.4868 83.0482 88.684 85.2521 91.3992 85.2521V82.4396C90.2415 82.4396 89.2993 81.4991 89.2993 80.3341H86.4868ZM91.3992 85.2521C94.114 85.2521 96.3117 83.0482 96.3117 80.3341H93.4992C93.4992 81.4991 92.557 82.4396 91.3992 82.4396V85.2521Z" fill="#A2ECFB"/>
<path d="M85.4744 65.0797C84.9731 65.6728 85.0476 66.5601 85.6408 67.0614C86.2339 67.5627 87.1212 67.4883 87.6225 66.8952L85.4744 65.0797ZM91.5913 48.0901L90.3729 48.7925L91.5913 48.0901ZM80.0211 41.5322C79.2445 41.522 78.6068 42.1434 78.5967 42.92C78.5865 43.6966 79.2079 44.3343 79.9845 44.3444L80.0211 41.5322ZM72.5474 45.1563C73.3068 44.9934 73.7902 44.2457 73.6273 43.4863C73.4644 42.727 72.7166 42.2435 71.9573 42.4065L72.5474 45.1563ZM56.0184 50.2287L56.7224 51.4461L56.0184 50.2287ZM33.9602 77.2068C34.0728 77.9752 34.787 78.5069 35.5555 78.3943C36.324 78.2817 36.8556 77.5675 36.743 76.7991L33.9602 77.2068ZM87.6225 66.8952C90.4717 63.524 92.5195 60.0367 93.4937 56.7172C94.4695 53.3916 94.3906 50.1306 92.8094 47.3879L90.3729 48.7925C91.4604 50.679 91.6252 53.0952 90.7948 55.9253C89.9627 58.7613 88.155 61.908 85.4744 65.0797L87.6225 66.8952ZM92.8094 47.3879C90.4937 43.3701 85.647 41.6055 80.0211 41.5322L79.9845 44.3444C85.1975 44.4123 88.7861 46.0395 90.3729 48.7925L92.8094 47.3879ZM71.9573 42.4065C66.6845 43.538 60.9436 45.7562 55.3145 49.0114L56.7224 51.4461C62.1228 48.3233 67.5897 46.2202 72.5474 45.1563L71.9573 42.4065ZM55.3145 49.0114C48.4817 52.9625 42.8804 57.8245 39.1165 62.7443C35.3886 67.6172 33.3084 72.759 33.9602 77.2068L36.743 76.7991C36.253 73.4551 37.8083 69.083 41.3503 64.4533C44.8562 59.8705 50.1593 55.2413 56.7224 51.4461L55.3145 49.0114Z" fill="#A2ECFB"/>
<path d="M52.3458 82.148C52.0843 81.4167 51.2794 81.0359 50.5482 81.2973C49.8168 81.5588 49.436 82.3637 49.6975 83.095L52.3458 82.148ZM75.3778 89.3325C75.7774 88.6666 75.5616 87.8027 74.8957 87.403C74.2298 87.0034 73.366 87.2191 72.9663 87.8851L75.3778 89.3325ZM76.1643 80.5465C75.9327 81.2878 76.3459 82.0765 77.0872 82.3081C77.8285 82.5397 78.6172 82.1265 78.8488 81.3852L76.1643 80.5465ZM79.9244 64.0526H78.5182H79.9244ZM68.0282 31.6016C67.3186 31.286 66.4874 31.6055 66.1718 32.3151C65.8562 33.0248 66.1757 33.8559 66.8853 34.1714L68.0282 31.6016ZM49.6975 83.095C51.1871 87.261 53.1794 90.7895 55.5651 93.3008C57.955 95.8156 60.8187 97.3836 63.9872 97.3836V94.5711C61.8113 94.5711 59.6379 93.5039 57.604 91.3632C55.5658 89.218 53.7476 86.0685 52.3458 82.148L49.6975 83.095ZM63.9872 97.3836C68.5855 97.3836 72.5095 94.1109 75.3778 89.3325L72.9663 87.8851C70.3111 92.3086 67.1346 94.5711 63.9872 94.5711V97.3836ZM78.8488 81.3852C80.4273 76.3331 81.3307 70.393 81.3307 64.0526H78.5182C78.5182 70.1356 77.6503 75.7905 76.1643 80.5465L78.8488 81.3852ZM81.3307 64.0526C81.3307 56.2769 79.9718 49.0953 77.6689 43.4142C75.3866 37.7841 72.081 33.404 68.0282 31.6016L66.8853 34.1714C69.966 35.5415 72.8943 39.1222 75.0624 44.4708C77.2099 49.7684 78.5182 56.5836 78.5182 64.0526H81.3307Z" fill="#A2ECFB"/>
<path fill-rule="evenodd" clip-rule="evenodd" d="M94.9055 80.3341C94.9055 78.3947 93.336 76.8224 91.3992 76.8224C89.4628 76.8224 87.8931 78.3947 87.8931 80.3341C87.8931 82.2736 89.4628 83.8459 91.3992 83.8459C93.336 83.8459 94.9055 82.2736 94.9055 80.3341Z" stroke="#A2ECFB" stroke-width="3.6" stroke-linecap="round"/>
<path d="M63.9872 35.6395C65.9236 35.6395 67.4934 34.0673 67.4934 32.1278C67.4934 30.1883 65.9236 28.6161 63.9872 28.6161C62.0507 28.6161 60.481 30.1883 60.481 32.1278C60.481 34.0673 62.0507 35.6395 63.9872 35.6395Z" stroke="#A2ECFB" stroke-width="3.6" stroke-linecap="round"/>
<path fill-rule="evenodd" clip-rule="evenodd" d="M64.6641 67.192C62.9329 67.5666 61.2273 66.4646 60.8526 64.7307C60.4792 62.9968 61.5787 61.2885 63.3099 60.9132C65.0411 60.5385 66.7466 61.6405 67.1214 63.3744C67.4955 65.1083 66.3953 66.8166 64.6641 67.192Z" fill="#A2ECFB"/>
</svg>

<svg xmlns="http://www.w3.org/2000/svg" width="128" height="128" fill="none" xmlns:v="https://vecta.io/nano"><path d="M54.153 44.862c.764.139 1.496-.367 1.636-1.131s-.367-1.496-1.131-1.636l-.505 2.767zm-17.797 3.181l1.218.702-1.218-.702zm.253 13.563c.386.674 1.245.908 1.919.522s.908-1.245.522-1.919l-2.441 1.397zm6.839 4.539c-.522-.575-1.412-.617-1.986-.095a1.41 1.41 0 0 0-.095 1.987l2.082-1.891zm12.543 11.684l-.704 1.217.704-1.217zm33.728 6.104c.641-.438.806-1.313.368-1.954s-1.313-.806-1.954-.368l1.586 2.323zM54.657 42.095c-4.352-.794-8.404-.832-11.772-.018-3.374.815-6.164 2.516-7.748 5.264l2.437 1.405c1.09-1.89 3.102-3.242 5.972-3.935 2.877-.695 6.512-.696 10.607.051l.505-2.767zm-19.52 5.246c-2.354 4.083-1.389 9.268 1.471 14.265l2.441-1.397c-2.661-4.648-3.09-8.663-1.476-11.463l-2.437-1.405zm6.229 20.696c3.601 3.964 8.349 7.788 13.921 11.01l1.408-2.435c-5.345-3.091-9.859-6.738-13.247-10.467l-2.082 1.891zm13.921 11.01c6.638 3.838 13.436 6.238 19.443 7.11 5.956.865 11.359.256 14.989-2.223l-1.586-2.323c-2.785 1.902-7.344 2.583-12.998 1.763-5.604-.814-12.065-3.076-18.439-6.762l-1.408 2.435zm41.024 1.288c0-2.714-2.198-4.918-4.913-4.918v2.813c1.158 0 2.1.941 2.1 2.105h2.813zm-4.913-4.918c-2.715 0-4.912 2.204-4.912 4.918h2.813c0-1.165.942-2.105 2.1-2.105v-2.812zm-4.912 4.918c0 2.714 2.197 4.918 4.912 4.918V82.44c-1.158 0-2.1-.941-2.1-2.105h-2.812zm4.912 4.918c2.715 0 4.913-2.204 4.913-4.918h-2.812c0 1.165-.942 2.105-2.1 2.105v2.813zM85.474 65.08c-.501.593-.427 1.48.166 1.982s1.48.427 1.982-.166l-2.148-1.815zm6.117-16.99l-1.218.702 1.218-.702zm-11.57-6.558c-.777-.01-1.414.611-1.424 1.388s.611 1.414 1.388 1.424l.037-2.812zm-7.474 3.624c.759-.163 1.243-.911 1.08-1.67s-.911-1.243-1.67-1.08l.59 2.75zm-16.529 5.072l.704 1.217-.704-1.217zM33.96 77.207a1.41 1.41 0 0 0 1.595 1.188c.768-.112 1.3-.827 1.188-1.595l-2.783.408zm53.662-10.312c2.849-3.371 4.897-6.858 5.871-10.178.976-3.326.897-6.587-.684-9.329l-2.436 1.405c1.088 1.887 1.252 4.303.422 7.133-.832 2.836-2.64 5.983-5.32 9.154l2.148 1.816zm5.187-19.507c-2.316-4.018-7.162-5.782-12.788-5.856l-.037 2.812c5.213.068 8.802 1.695 10.388 4.448l2.436-1.405zm-20.852-4.981c-5.273 1.131-11.014 3.35-16.643 6.605l1.408 2.435c5.4-3.123 10.867-5.226 15.825-6.29l-.59-2.75zm-16.643 6.605c-6.833 3.951-12.434 8.813-16.198 13.733-3.728 4.873-5.808 10.015-5.156 14.462l2.783-.408c-.49-3.344 1.065-7.716 4.607-12.346 3.506-4.583 8.809-9.212 15.372-13.007l-1.408-2.435zm-2.968 33.136c-.261-.731-1.066-1.112-1.798-.851s-1.112 1.066-.851 1.798l2.648-.947zm23.032 7.185c.4-.666.184-1.53-.482-1.929s-1.53-.184-1.929.482l2.411 1.447zm.787-8.786c-.232.741.182 1.53.923 1.762s1.53-.182 1.762-.923l-2.684-.839zm3.76-16.494h-1.406 1.406zM68.028 31.602c-.71-.316-1.541.004-1.856.713s.004 1.541.713 1.856l1.143-2.57zm-18.33 51.493c1.49 4.166 3.482 7.695 5.868 10.206s5.254 4.083 8.422 4.083v-2.812c-2.176 0-4.349-1.067-6.383-3.208s-3.856-5.295-5.258-9.215l-2.648.947zm14.29 14.289c4.598 0 8.522-3.273 11.391-8.051l-2.411-1.447c-2.655 4.424-5.832 6.686-8.979 6.686v2.813zM78.85 81.386c1.579-5.052 2.482-10.992 2.482-17.333H78.52c0 6.083-.868 11.738-2.354 16.494l2.685.839zm2.482-17.333c0-7.776-1.359-14.957-3.662-20.638-2.282-5.63-5.588-10.01-9.641-11.813l-1.143 2.57c3.081 1.37 6.009 4.951 8.177 10.299 2.148 5.298 3.456 12.113 3.456 19.582h2.813z" fill="#a2ecfb"/><path d="M94.906 80.334a3.51 3.51 0 0 0-3.506-3.512 3.511 3.511 0 1 0 0 7.023 3.51 3.51 0 0 0 3.506-3.512zM63.987 35.64a3.512 3.512 0 0 0 0-7.023 3.512 3.512 0 0 0 0 7.023z" stroke="#a2ecfb" stroke-width="3.6"/><path fill-rule="evenodd" d="M64.664 67.192c-1.731.375-3.437-.727-3.812-2.461s.726-3.442 2.457-3.817 3.437.727 3.811 2.461-.726 3.442-2.457 3.818z" fill="#a2ecfb"/></svg>
